frontend/public/svg/food/dish.svg

<svg width="157" height="88" viewBox="0 0 157 88" fill="none" xmlns="http://www.w3.org/2000/svg">
<g clip-path="url(#clip0)">
<path d="M148.958 79.1725C147.509 79.1679 146.059 79.1725 144.585 79.1725H143.155L143.008 78.2398C142.862 77.3282 142.735 76.5333 142.624 75.7293C140.847 62.8756 137.425 51.8343 132.16 41.9715C123.579 25.8912 110.567 15.4979 93.496 11.0794C91.733 10.6199 89.9242 10.2044 88.1744 9.80005C87.518 9.64778 86.8571 9.49453 86.1929 9.34048C86.1929 9.13505 86.1988 8.93618 86.2014 8.73993C86.2119 7.99762 86.2218 7.2956 86.1811 6.59594C86.0373 4.11431 85.4368 2.48617 84.2921 1.47213C83.1475 0.458089 81.4797 0.0635577 79.0296 0.217141C76.1923 0.396321 73.1987 0.717924 69.6066 1.22921C66.9222 1.6112 65.0589 2.11588 64.0698 3.44627C63.0807 4.77667 63.1294 6.77184 63.5448 9.55012C63.5297 9.58622 63.5094 9.62593 63.4884 9.67121C63.4812 9.68696 63.4738 9.70291 63.4659 9.71932L62.7558 9.88275C61.9682 10.0639 61.1514 10.2525 60.3343 10.4455C42.0783 14.7603 29.0021 24.9582 21.4706 40.7563C15.0648 54.1934 12.0713 68.6081 10.0084 81.005L8.3528 81.1789C6.52229 81.3705 4.69158 81.5622 2.86368 81.7696C2.42987 81.7906 2.00608 81.9055 1.62087 82.1063C1.23567 82.3071 0.898566 82.5887 0.632518 82.932C0.451363 83.2044 0.333761 83.5148 0.288325 83.839C0.242889 84.1639 0.270521 84.4941 0.369726 84.8065C0.573663 85.348 0.900535 85.8356 1.32411 86.2301C1.74768 86.6245 2.25629 86.9153 2.81112 87.0807C4.07806 87.3668 5.37667 87.4909 6.67481 87.4489C6.89402 87.4489 7.11324 87.4489 7.33114 87.4489C20.5353 87.3787 32.4628 87.3111 44.7232 87.1863C51.9696 87.1122 59.2156 87.0249 66.4614 86.9238C79.0972 86.7597 92.1636 86.5911 105.014 86.5346C114.839 86.4926 124.835 86.6003 134.501 86.7039C139.379 86.7565 144.257 86.8037 149.136 86.8451C152.643 86.8707 155.893 86.4401 155.973 83.1623C156.002 82.7226 155.939 82.2809 155.789 81.8667C155.639 81.4519 155.405 81.0732 155.101 80.7529C154.069 79.6811 152.117 79.1817 148.958 79.1725ZM133.096 78.4262V78.4387L17.4877 80.6912C17.5172 80.4714 17.5454 80.2502 17.5736 80.0296C17.6769 79.0261 17.8549 78.0331 18.1056 77.0558C18.5488 75.5003 18.9874 73.9434 19.4215 72.3853C21.6596 64.3978 23.9733 56.1391 27.2924 48.3458C34.1511 32.2445 45.7825 22.626 62.8538 18.942C67.1013 18.0148 71.4364 17.5429 75.784 17.5351C84.6866 17.5578 93.4691 19.5935 101.474 23.4896C110.166 27.6442 117.227 34.4316 122.449 43.663C127.831 53.1688 131.31 64.1331 133.077 77.1825C133.118 77.5959 133.124 78.0121 133.096 78.4262ZM70.3207 8.72326C73.0504 8.11851 75.8385 7.82178 78.6339 7.83813C78.8262 8.08635 79.0014 8.34653 79.1589 8.61753C79.1799 8.65231 79.2022 8.68782 79.2252 8.72326H70.3207Z" fill="black"/>
</g>
<defs>
<clipPath id="clip0">
<rect width="156.208" height="87.9493" fill="white" transform="translate(0.0756836 0.00390625)"/>
</clipPath>
</defs>
</svg>

<svg xmlns="http://www.w3.org/2000/svg" width="157" height="88" fill="none" viewBox="0 0 157 88"><g clip-path="url(#a)"><path fill="#000" d="M148.958 79.173c-1.449-.005-2.899 0-4.373 0h-1.43l-.147-.933a117 117 0 0 1-.384-2.51c-1.777-12.854-5.199-23.896-10.464-33.759-8.581-16.08-21.593-26.473-38.664-30.892-1.763-.46-3.572-.875-5.322-1.279l-1.981-.46c0-.205.006-.404.008-.6.01-.742.02-1.444-.02-2.144-.144-2.482-.744-4.11-1.889-5.124S81.48.064 79.03.217c-2.838.18-5.831.5-9.423 1.012-2.685.382-4.548.887-5.537 2.217-.99 1.33-.94 3.326-.525 6.104q-.024.054-.057.121l-.022.048-.71.164c-.788.18-1.605.37-2.422.563-18.256 4.314-31.332 14.512-38.863 30.31-6.406 13.437-9.4 27.852-11.463 40.249l-1.655.174c-1.83.192-3.661.383-5.49.59a3 3 0 0 0-2.23 1.163 2.19 2.19 0 0 0-.263 1.874 3.75 3.75 0 0 0 2.441 2.275c1.267.286 2.566.41 3.864.368h.656c13.204-.07 25.132-.138 37.392-.263q10.87-.11 21.738-.262c12.636-.164 25.703-.333 38.553-.39 9.825-.041 19.821.066 29.487.17q7.317.08 14.635.141c3.507.026 6.757-.405 6.837-3.683a3.2 3.2 0 0 0-.872-2.41c-1.032-1.07-2.984-1.57-6.143-1.58m-15.862-.747v.013L17.488 80.69q.044-.33.086-.661.154-1.507.532-2.974.664-2.334 1.316-4.67c2.238-7.988 4.551-16.247 7.87-24.04 6.86-16.101 18.49-25.72 35.562-29.404a61 61 0 0 1 12.93-1.407 59.05 59.05 0 0 1 25.69 5.955c8.692 4.154 15.753 10.942 20.975 20.173 5.382 9.506 8.861 20.47 10.628 33.52q.061.621.019 1.243M70.321 8.723a37.4 37.4 0 0 1 8.313-.885q.288.373.525.78.03.052.066.105z"/></g><defs><clipPath id="a"><path fill="#fff" d="M.076.004h156.208v87.949H.076z"/></clipPath></defs></svg>
